img/svg/dark-logo.svg

<svg width="64" height="64" viewBox="0 0 64 64" fill="none" xmlns="http://www.w3.org/2000/svg">
<path fill-rule="evenodd" clip-rule="evenodd" d="M32 18.0001L48 29L39 46H35L33 42H31L29 46H25L16 29.0001L16 29H16.0002L32 18.0001L32 18L32 18.0001ZM32 18.0003L30 37.0001L26 29.0001H18L26 44H28L30 40H34L36 44H38L46 29H38L34 37L32 18.0003Z" fill="#101010"/>
<rect x="1" y="1" width="62" height="62" rx="31" stroke="#101010" fill="none" stroke-width="2"/>
</svg>

<svg width="64" height="64" fill="none" xmlns="http://www.w3.org/2000/svg"><path fill-rule="evenodd" clip-rule="evenodd" d="M32 18l16 11-9 17h-4l-2-4h-2l-2 4h-4l-9-17 16-11zm0 0l-2 19-4-8h-8l8 15h2l2-4h4l2 4h2l8-15h-8l-4 8-2-19z" fill="#101010"/><rect x="1" y="1" width="62" height="62" rx="31" stroke="#101010" stroke-width="2"/></svg>
